packages/kaspersky-hexa-ui-icons/src/iconsSVGs/24/IOCScan.svg

<svg width="24" height="24" viewBox="0 0 24 24" fill="none" xmlns="http://www.w3.org/2000/svg">
<path d="M4 15.5C4.55228 15.5 5 15.9477 5 16.5V18C5 18.5523 5.44772 19 6 19H7.5C8.05228 19 8.5 19.4477 8.5 20C8.5 20.5523 8.05228 21 7.5 21H6C4.34315 21 3 19.6569 3 18V16.5C3 15.9477 3.44772 15.5 4 15.5Z" fill="black"/>
<path d="M20 15.5C20.5523 15.5 21 15.9477 21 16.5V18C21 19.6569 19.6569 21 18 21H16.5C15.9477 21 15.5 20.5523 15.5 20C15.5 19.4477 15.9477 19 16.5 19H18C18.5523 19 19 18.5523 19 18V16.5C19 15.9477 19.4477 15.5 20 15.5Z" fill="black"/>
<path fill-rule="evenodd" clip-rule="evenodd" d="M10.5811 9.62793C11.23 9.62805 11.7909 9.87297 12.1885 10.2988C12.5851 10.7238 12.8086 11.3174 12.8086 12C12.8086 12.6827 12.5852 13.2771 12.1885 13.7021C11.7909 14.1278 11.2299 14.372 10.5811 14.3721C9.93476 14.372 9.37426 14.128 8.97754 13.7021C8.58178 13.2772 8.35843 12.6826 8.3584 12C8.35843 11.3176 8.582 10.7237 8.97754 10.2988C9.37427 9.87293 9.93469 9.62803 10.5811 9.62793ZM10.5811 11.0244C10.3589 11.0245 10.1872 11.111 10.0674 11.2646C9.94352 11.4237 9.86233 11.6706 9.8623 12C9.86232 12.3295 9.94351 12.5763 10.0674 12.7354C10.1872 12.889 10.3589 12.9765 10.5811 12.9766C10.8068 12.9764 10.9784 12.8877 11.0986 12.7344C11.223 12.5755 11.3047 12.3295 11.3047 12C11.3047 11.6704 11.2231 11.4245 11.0986 11.2656C10.9784 11.1122 10.8069 11.0245 10.5811 11.0244Z" fill="black"/>
<path fill-rule="evenodd" clip-rule="evenodd" d="M15.666 9.62793C16.1286 9.628 16.603 9.75214 16.9824 10.0283C17.3661 10.3077 17.6433 10.7362 17.7129 11.3164C17.7196 11.3729 17.7017 11.43 17.6641 11.4727C17.6262 11.5154 17.5707 11.5399 17.5137 11.54H16.4336C16.3426 11.5399 16.263 11.4778 16.2402 11.3896C16.1732 11.1301 15.9055 11.0246 15.6543 11.0244C15.4301 11.0244 15.2582 11.11 15.1377 11.2617C15.0132 11.4188 14.9297 11.6644 14.9297 12C14.9297 12.3356 15.0132 12.5812 15.1377 12.7383C15.2582 12.89 15.4301 12.9766 15.6543 12.9766C15.9111 12.9764 16.1903 12.8672 16.2627 12.5449L16.2891 12.4814C16.3249 12.4248 16.3879 12.3877 16.458 12.3877H17.5381C17.5945 12.3878 17.6487 12.4122 17.6865 12.4541C17.7242 12.4963 17.7424 12.5531 17.7363 12.6094C17.6704 13.2156 17.3907 13.6625 17.001 13.9541C16.6154 14.2425 16.1327 14.372 15.666 14.3721C15.0119 14.3721 14.4475 14.1295 14.0479 13.7041C13.6493 13.2796 13.4258 12.6854 13.4258 12C13.4258 11.3145 13.6492 10.7204 14.0479 10.2959C14.4475 9.87043 15.0118 9.62793 15.666 9.62793Z" fill="black"/>
<path d="M7.54199 9.7002C7.65241 9.70024 7.74219 9.78996 7.74219 9.90039V14.1006C7.74187 14.2108 7.65222 14.3007 7.54199 14.3008H6.46191C6.35186 14.3005 6.26203 14.2106 6.26172 14.1006V9.90039C6.26172 9.79008 6.35166 9.70044 6.46191 9.7002H7.54199Z" fill="black"/>
<path d="M7.5 3C8.05228 3 8.5 3.44772 8.5 4C8.5 4.55228 8.05228 5 7.5 5H6C5.44772 5 5 5.44772 5 6V7.5C5 8.05228 4.55228 8.5 4 8.5C3.44772 8.5 3 8.05228 3 7.5V6C3 4.34315 4.34315 3 6 3H7.5Z" fill="black"/>
<path d="M18.1543 3.00391C19.7394 3.08421 21 4.39489 21 6V7.5C21 8.05228 20.5523 8.5 20 8.5C19.4477 8.5 19 8.05228 19 7.5V6C19 5.48232 18.6067 5.05621 18.1025 5.00488L18 5H16.5C15.9477 5 15.5 4.55228 15.5 4C15.5 3.44772 15.9477 3 16.5 3H18L18.1543 3.00391Z" fill="black"/>
</svg>

<svg xmlns="http://www.w3.org/2000/svg" width="24" height="24" fill="none" viewBox="0 0 24 24"><path fill="#000" d="M4 15.5c.552 0 1 .448 1 1V18c0 .552.448 1 1 1h1.5c.552 0 1 .448 1 1s-.448 1-1 1H6c-1.657 0-3-1.343-3-3v-1.5c0-.552.448-1 1-1m16 0c.552 0 1 .448 1 1V18c0 1.657-1.343 3-3 3h-1.5c-.552 0-1-.448-1-1s.448-1 1-1H18c.552 0 1-.448 1-1v-1.5c0-.552.448-1 1-1"/><path fill="#000" fill-rule="evenodd" d="M10.581 9.628c.649 0 1.21.245 1.607.671.397.425.62 1.019.62 1.701s-.223 1.277-.62 1.702c-.398.426-.959.67-1.607.67-.646 0-1.207-.244-1.604-.67-.396-.425-.619-1.02-.619-1.702s.224-1.276.619-1.701c.397-.426.957-.671 1.604-.671m0 1.396c-.222 0-.394.087-.514.24-.124.159-.205.406-.205.735 0 .33.081.576.205.735.12.154.292.241.514.241.226 0 .397-.089.518-.242.124-.159.206-.405.206-.734s-.082-.575-.206-.734c-.12-.153-.292-.241-.517-.241m5.084-1.396c.463 0 .937.124 1.316.4.384.279.661.708.731 1.288a.2.2 0 0 1-.049.156.203.203 0 0 1-.15.067h-1.08a.201.201 0 0 1-.193-.15c-.067-.259-.335-.365-.586-.365-.224 0-.396.086-.517.237-.124.157-.208.403-.208.738s.084.581.208.738c.121.152.292.238.517.238.257 0 .536-.109.608-.432l.026-.063a.2.2 0 0 1 .169-.094h1.08a.2.2 0 0 1 .148.066.2.2 0 0 1 .05.155c-.066.606-.346 1.053-.735 1.345-.386.288-.868.418-1.335.418-.654 0-1.218-.243-1.618-.668-.399-.424-.622-1.019-.622-1.704s.223-1.28.622-1.704c.4-.425.964-.668 1.618-.668" clip-rule="evenodd"/><path fill="#000" d="M7.542 9.7a.2.2 0 0 1 .2.2v4.2a.201.201 0 0 1-.2.2h-1.08a.201.201 0 0 1-.2-.2V9.9c0-.11.09-.2.2-.2zM7.5 3c.552 0 1 .448 1 1s-.448 1-1 1H6c-.552 0-1 .448-1 1v1.5c0 .552-.448 1-1 1s-1-.448-1-1V6c0-1.657 1.343-3 3-3zm10.654.004C19.739 3.084 21 4.395 21 6v1.5c0 .552-.448 1-1 1s-1-.448-1-1V6c0-.518-.393-.944-.897-.995L18 5h-1.5c-.552 0-1-.448-1-1s.448-1 1-1H18z"/></svg>
